tools/download-figma-icons/icons/outlined-large/upload.svg

<svg width="64" height="64" viewBox="0 0 64 64" fill="none" xmlns="http://www.w3.org/2000/svg">
<path fill-rule="evenodd" clip-rule="evenodd" d="M15.4093 52.8396H50.5C56.29 52.8396 61 48.1246 61 42.3297C61 36.5397 56.29 31.8298 50.5 31.8298C50.062 31.8298 49.621 31.8568 49.1901 31.9088C48.6991 31.9658 48.2171 31.7838 47.8911 31.4178C47.5631 31.0518 47.4371 30.5478 47.5511 30.0698C47.8221 28.9398 47.9601 27.7478 47.9601 26.5298C47.9601 17.9669 40.9931 10.9999 32.4302 10.9999C23.8722 10.9999 16.9093 17.9669 16.9093 26.5298C16.9093 27.3588 16.2373 28.0298 15.4093 28.0298C8.56636 28.0298 3.0004 33.5927 3.0004 40.4297C3.0004 47.2726 8.56636 52.8396 15.4093 52.8396ZM50.96 26.5298C50.96 27.3078 50.913 28.0778 50.818 28.8338C58.116 29.0028 63.9999 34.9917 63.9999 42.3297C63.9999 49.7786 57.944 55.8396 50.5 55.8396H15.4093C6.91238 55.8396 0.000427243 48.9266 0.000427243 40.4297C0.000427243 32.4258 6.14338 25.8278 13.9643 25.0978C14.6973 15.5469 22.6993 7.99994 32.4302 7.99994C42.6471 7.99994 50.96 16.3129 50.96 26.5298ZM32.5708 24.4737C32.7548 24.5497 32.9218 24.6607 33.0608 24.7997L40.5607 32.2997C41.1467 32.8857 41.1467 33.8346 40.5607 34.4206C40.2677 34.7136 39.8837 34.8606 39.4997 34.8606C39.1167 34.8606 38.7327 34.7136 38.4397 34.4206L33.4998 29.4817V44.8606C33.4998 45.6886 32.8288 46.3605 31.9998 46.3605C31.1718 46.3605 30.4998 45.6886 30.4998 44.8606V29.4817L25.5608 34.4206C24.9748 35.0066 24.0258 35.0066 23.4398 34.4206C22.8539 33.8346 22.8539 32.8857 23.4398 32.2997L30.9398 24.7997C31.0788 24.6607 31.2458 24.5497 31.4298 24.4737C31.4378 24.4707 31.4458 24.4697 31.4538 24.4667C31.6228 24.4007 31.8068 24.3607 31.9998 24.3607C32.1938 24.3607 32.3768 24.4007 32.5468 24.4667C32.5508 24.4682 32.5548 24.4692 32.5588 24.4702C32.5628 24.4712 32.5668 24.4722 32.5708 24.4737Z" fill="black"/>
</svg>

<svg width="64" height="64" viewBox="0 0 64 64" fill="none" xmlns="http://www.w3.org/2000/svg"><path fill-rule="evenodd" clip-rule="evenodd" d="M15.41 52.84H50.5c5.79 0 10.5-4.715 10.5-10.51 0-5.79-4.71-10.5-10.5-10.5-.438 0-.879.027-1.31.079a1.501 1.501 0 0 1-1.639-1.84 15.2 15.2 0 0 0 .41-3.54c0-8.562-6.968-15.53-15.53-15.53-8.559 0-15.522 6.968-15.522 15.53a1.5 1.5 0 0 1-1.5 1.5C8.566 28.03 3 33.594 3 40.43c0 6.844 5.566 12.41 12.41 12.41Zm35.55-26.31c0 .778-.047 1.548-.142 2.304C58.116 29.003 64 34.992 64 42.33c0 7.449-6.056 13.51-13.5 13.51H15.41C6.911 55.84 0 48.927 0 40.43c0-8.004 6.143-14.602 13.964-15.332C14.697 15.547 22.7 8 32.43 8c10.217 0 18.53 8.313 18.53 18.53Zm-18.39-2.056c.185.076.352.187.49.326l7.5 7.5a1.5 1.5 0 1 1-2.12 2.12l-4.94-4.938V44.86a1.5 1.5 0 1 1-3 0V29.48l-4.94 4.94a1.5 1.5 0 1 1-2.12-2.121l7.5-7.5c.139-.14.306-.25.49-.326l.024-.007A1.5 1.5 0 0 1 32 24.36c.194 0 .377.04.547.106l.012.003a.109.109 0 0 1 .012.004Z" fill="currentColor"/></svg>
